packages/ui/public/icons/profile-youtube-icon.svg

<svg fill="#FFFFFF" xmlns="http://www.w3.org/2000/svg" viewBox="0 0 30 30"> 
<path
    d="M 15 4 C 10.814 4 5.3808594 5.0488281 5.3808594 5.0488281 L 5.3671875 5.0644531 C 3.4606632 5.3693645 2 7.0076245 2 9 L 2 15 L 2 15.001953 L 2 21 L 2 21.001953 A 4 4 0 0 0 5.3769531 24.945312 L 5.3808594 24.951172 C 5.3808594 24.951172 10.814 26.001953 15 26.001953 C 19.186 26.001953 24.619141 24.951172 24.619141 24.951172 L 24.621094 24.949219 A 4 4 0 0 0 28 21.001953 L 28 21 L 28 15.001953 L 28 15 L 28 9 A 4 4 0 0 0 24.623047 5.0546875 L 24.619141 5.0488281 C 24.619141 5.0488281 19.186 4 15 4 z M 12 10.398438 L 20 15 L 12 19.601562 L 12 10.398438 z"
  /></svg>

<svg fill="#FFF" xmlns="http://www.w3.org/2000/svg" viewBox="0 0 30 30"><path d="M15 4c-4.186 0-9.62 1.049-9.62 1.049l-.013.015A3.99 3.99 0 0 0 2 9v12.002a4 4 0 0 0 3.377 3.943l.004.006s5.433 1.051 9.619 1.051 9.62-1.05 9.62-1.05l.001-.003A4 4 0 0 0 28 21.002V9a4 4 0 0 0-3.377-3.945l-.004-.006S19.186 4 15 4zm-3 6.398L20 15l-8 4.602v-9.204z"/></svg>
